X: 20919
T: Jota De Desiderio
R: mazurka
M: 3/4
K: Dmajor
DF DF|:AB AG FG|A2 DF DF|
AB AG FG|E2 CE CE|GA GF EF|
E2 CE CE|AB AG FE|1 F2 DF DF:|2 D6||
DE FG|:A2 Bc d2|d2 e2 d2|
cd cB A2|A2 c2 B2|AB AG F2|
F2 A2 G2|FG FE D2|1 D2 DE FG:|2 D2 d2 e2||
|:d2 cB cd|c2 BA Bc|Bc BA G2|
G2 AB cd|1 c2 BA Bc|B2 AG AB|AB AG F2|
F2 d2 e2:|2 ef ed cB|AB AG FE|D6||

